X: 54
T: No_44_"Ten_Large_Diamonds".krn
N: Derived from No_44_"Ten_Large_Diamonds".krn
%%abc-version 2.0
%%abcx-abcm2ps-target-version 5.9.1 (29 Sep 2008)
%%abc-creator hum2abc beta
%%abcx-conversion-date 2019/03/15 08:36:13
%%humdrum-veritas 3705351577
%%humdrum-veritas-data 1925553711
%%linebreak <none>
%%barnumbers 0
L: 1/16
M: 2/4
K: B clef=bass
[K:clef=bass][M:2/4]z4z2 B,2 | 
C8 | 
CB, z D C3B, ||  
[M:3/4]B,4z3 B, C3B, ||  
[M:2/4]C4B,4 | 
CB,2D C3B, | 
B,4z2 z D ||  
[M:3/4]D4D8 | 
DB, z D DB, z C C3B, | 
B,4z2 z C C3B, ||  
[M:2/4]C4B,4 | 
B,3B, B,3B, | 
B,4B,4 | 
z2 C2C4 ||  
[M:3/4]C2B,2B,4z2 C2 ||  
[M:2/4]C2B,2 B,2A,2 | 
B,4z2 z D | 
D6D2 | 
D2B, z D3D | 
D2B,2 B,2 z C | 
B,4B,3A, | 
B,4z4 | 
C8 | 
CB, z C CB,3 | 
C8 |]  



